X: 6
T: Mother's Delight
R: reel
M: 4/4
L: 1/8
K: Ddor
DE|:F2 FE F2 DE|FEFA GECE|Ddd^c defe|decd ABcA|d2 dc A3B|cbcG ECCE|Dddc A3_B|AGEG FDDE:||FAdA FDDF|EGcG ECDE|FAdA FDDF|(3EGE EC A,DDE|FAdA FDDF|EGcG ECFE|Dddc A3_B|AGEG FDD2||


Tune 257	Setting 12986

